images/50860691.svg

<?xml version="1.0" encoding="UTF-8"?>
<svg xmlns="http://www.w3.org/2000/svg" xmlns:xlink="http://www.w3.org/1999/xlink" width="300pt" height="300pt" viewBox="0 0 300 300" version="1.1">
<defs>
<g>
<symbol overflow="visible" id="glyph0-0">
<path style="stroke:none;" d="M 0.546875 1.9375 L 0.546875 -7.75 L 6.046875 -7.75 L 6.046875 1.9375 Z M 1.171875 1.328125 L 5.4375 1.328125 L 5.4375 -7.140625 L 1.171875 -7.140625 Z M 1.171875 1.328125 "/>
</symbol>
<symbol overflow="visible" id="glyph0-1">
<path style="stroke:none;" d="M 1.078125 -8.015625 L 5.6875 -8.015625 L 5.6875 -7.109375 L 2.171875 -7.109375 L 2.171875 -4.75 L 5.34375 -4.75 L 5.34375 -3.828125 L 2.171875 -3.828125 L 2.171875 0 L 1.078125 0 Z M 1.078125 -8.015625 "/>
</symbol>
<symbol overflow="visible" id="glyph0-2">
<path style="stroke:none;" d="M 1.078125 -8.015625 L 2.546875 -8.015625 L 6.09375 -1.3125 L 6.09375 -8.015625 L 7.15625 -8.015625 L 7.15625 0 L 5.6875 0 L 2.125 -6.703125 L 2.125 0 L 1.078125 0 Z M 1.078125 -8.015625 "/>
</symbol>
<symbol overflow="visible" id="glyph0-3">
<path style="stroke:none;" d="M 1.078125 -8.015625 L 2.171875 -8.015625 L 2.171875 -4.734375 L 6.109375 -4.734375 L 6.109375 -8.015625 L 7.1875 -8.015625 L 7.1875 0 L 6.109375 0 L 6.109375 -3.8125 L 2.171875 -3.8125 L 2.171875 0 L 1.078125 0 Z M 1.078125 -8.015625 "/>
</symbol>
</g>
</defs>
<g id="surface25453">
<rect x="0" y="0" width="300" height="300" style="fill:rgb(100%,100%,100%);fill-opacity:1;stroke:none;"/>
<path style="fill:none;stroke-width:1.2;stroke-linecap:butt;stroke-linejoin:miter;stroke:rgb(20%,80%,80%);stroke-opacity:1;stroke-miterlimit:10;" d="M 205.199219 86.761719 L 213.632812 96.796875 "/>
<path style="fill:none;stroke-width:1.2;stroke-linecap:butt;stroke-linejoin:miter;stroke:rgb(0%,0%,0%);stroke-opacity:1;stroke-miterlimit:10;" d="M 213.632812 96.796875 L 222.066406 106.832031 "/>
<path style=" stroke:none;fill-rule:nonzero;fill:rgb(100%,100%,100%);fill-opacity:1;" d="M 198.199219 80.261719 L 205.199219 80.261719 L 205.199219 93.261719 L 198.199219 93.261719 Z M 198.199219 80.261719 "/>
<g style="fill:rgb(20%,80%,80%);fill-opacity:1;">
  <use xlink:href="#glyph0-1" x="198.199219" y="90.163086"/>
</g>
<path style="fill:none;stroke-width:1.2;stroke-linecap:butt;stroke-linejoin:miter;stroke:rgb(0%,0%,0%);stroke-opacity:1;stroke-miterlimit:10;" d="M 222.066406 106.832031 L 247.882812 102.261719 "/>
<path style="fill:none;stroke-width:1.2;stroke-linecap:butt;stroke-linejoin:miter;stroke:rgb(0%,0%,0%);stroke-opacity:1;stroke-miterlimit:10;" d="M 225.722656 112.449219 L 246.378906 108.792969 "/>
<path style="fill:none;stroke-width:1.2;stroke-linecap:butt;stroke-linejoin:miter;stroke:rgb(0%,0%,0%);stroke-opacity:1;stroke-miterlimit:10;" d="M 213.117188 131.476562 L 222.066406 106.832031 "/>
<path style="fill:none;stroke-width:1.2;stroke-linecap:butt;stroke-linejoin:miter;stroke:rgb(0%,0%,0%);stroke-opacity:1;stroke-miterlimit:10;" d="M 247.882812 102.261719 L 264.75 122.332031 "/>
<path style="fill:none;stroke-width:1.2;stroke-linecap:butt;stroke-linejoin:miter;stroke:rgb(0%,0%,0%);stroke-opacity:1;stroke-miterlimit:10;" d="M 264.75 122.332031 L 255.800781 146.976562 "/>
<path style="fill:none;stroke-width:1.2;stroke-linecap:butt;stroke-linejoin:miter;stroke:rgb(0%,0%,0%);stroke-opacity:1;stroke-miterlimit:10;" d="M 258.058594 122.691406 L 250.898438 142.40625 "/>
<path style="fill:none;stroke-width:1.2;stroke-linecap:butt;stroke-linejoin:miter;stroke:rgb(0%,0%,0%);stroke-opacity:1;stroke-miterlimit:10;" d="M 255.800781 146.976562 L 229.984375 151.546875 "/>
<path style="fill:none;stroke-width:1.2;stroke-linecap:butt;stroke-linejoin:miter;stroke:rgb(0%,0%,0%);stroke-opacity:1;stroke-miterlimit:10;" d="M 229.984375 151.546875 L 225.511719 163.867188 "/>
<path style="fill:none;stroke-width:1.2;stroke-linecap:butt;stroke-linejoin:miter;stroke:rgb(20%,80%,80%);stroke-opacity:1;stroke-miterlimit:10;" d="M 225.511719 163.867188 L 221.035156 176.191406 "/>
<path style="fill:none;stroke-width:1.2;stroke-linecap:butt;stroke-linejoin:miter;stroke:rgb(0%,0%,0%);stroke-opacity:1;stroke-miterlimit:10;" d="M 229.984375 151.546875 L 213.117188 131.476562 "/>
<path style="fill:none;stroke-width:1.2;stroke-linecap:butt;stroke-linejoin:miter;stroke:rgb(0%,0%,0%);stroke-opacity:1;stroke-miterlimit:10;" d="M 233.019531 145.570312 L 219.527344 129.511719 "/>
<path style=" stroke:none;fill-rule:nonzero;fill:rgb(100%,100%,100%);fill-opacity:1;" d="M 214.035156 169.691406 L 221.035156 169.691406 L 221.035156 182.691406 L 214.035156 182.691406 Z M 214.035156 169.691406 "/>
<g style="fill:rgb(20%,80%,80%);fill-opacity:1;">
  <use xlink:href="#glyph0-1" x="214.035156" y="179.592773"/>
</g>
<path style="fill:none;stroke-width:1.2;stroke-linecap:butt;stroke-linejoin:miter;stroke:rgb(0%,0%,0%);stroke-opacity:1;stroke-miterlimit:10;" d="M 213.117188 131.476562 L 187.300781 136.046875 "/>
<path style="fill:none;stroke-width:1.2;stroke-linecap:butt;stroke-linejoin:miter;stroke:rgb(0%,0%,0%);stroke-opacity:1;stroke-miterlimit:10;" d="M 187.300781 136.046875 L 181.5625 147.832031 "/>
<path style="fill:none;stroke-width:1.2;stroke-linecap:butt;stroke-linejoin:miter;stroke:rgb(0%,0%,100%);stroke-opacity:1;stroke-miterlimit:10;" d="M 181.5625 147.832031 L 175.824219 159.617188 "/>
<path style="fill:none;stroke-width:1.2;stroke-linecap:butt;stroke-linejoin:miter;stroke:rgb(0%,0%,100%);stroke-opacity:1;stroke-miterlimit:10;" d="M 168.429688 117.847656 L 177.863281 126.945312 "/>
<path style="fill:none;stroke-width:1.2;stroke-linecap:butt;stroke-linejoin:miter;stroke:rgb(0%,0%,0%);stroke-opacity:1;stroke-miterlimit:10;" d="M 177.863281 126.945312 L 187.300781 136.046875 "/>
<path style="fill:none;stroke-width:1.2;stroke-linecap:butt;stroke-linejoin:miter;stroke:rgb(0%,0%,100%);stroke-opacity:1;stroke-miterlimit:10;" d="M 166.035156 124.109375 L 173.582031 131.386719 "/>
<path style="fill:none;stroke-width:1.2;stroke-linecap:butt;stroke-linejoin:miter;stroke:rgb(0%,0%,0%);stroke-opacity:1;stroke-miterlimit:10;" d="M 173.582031 131.386719 L 181.132812 138.667969 "/>
<path style="fill:none;stroke-width:1.2;stroke-linecap:butt;stroke-linejoin:miter;stroke:rgb(0%,0%,100%);stroke-opacity:1;stroke-miterlimit:10;" d="M 175.824219 159.617188 L 162.84375 157.804688 "/>
<path style="fill:none;stroke-width:1.2;stroke-linecap:butt;stroke-linejoin:miter;stroke:rgb(0%,0%,0%);stroke-opacity:1;stroke-miterlimit:10;" d="M 162.84375 157.804688 L 149.859375 155.988281 "/>
<path style=" stroke:none;fill-rule:nonzero;fill:rgb(100%,100%,100%);fill-opacity:1;" d="M 167.824219 153.117188 L 184.824219 153.117188 L 184.824219 166.117188 L 167.824219 166.117188 Z M 167.824219 153.117188 "/>
<g style="fill:rgb(0%,0%,100%);fill-opacity:1;">
  <use xlink:href="#glyph0-2" x="167.824219" y="163.018555"/>
  <use xlink:href="#glyph0-3" x="175.807617" y="163.018555"/>
</g>
<path style="fill:none;stroke-width:1.2;stroke-linecap:butt;stroke-linejoin:miter;stroke:rgb(0%,0%,0%);stroke-opacity:1;stroke-miterlimit:10;" d="M 149.859375 155.988281 L 145.289062 130.171875 "/>
<path style="fill:none;stroke-width:1.2;stroke-linecap:butt;stroke-linejoin:miter;stroke:rgb(0%,0%,0%);stroke-opacity:1;stroke-miterlimit:10;" d="M 155.476562 152.332031 L 151.820312 131.679688 "/>
<path style="fill:none;stroke-width:1.2;stroke-linecap:butt;stroke-linejoin:miter;stroke:rgb(0%,0%,0%);stroke-opacity:1;stroke-miterlimit:10;" d="M 149.859375 155.988281 L 131.660156 174.863281 "/>
<path style="fill:none;stroke-width:1.2;stroke-linecap:butt;stroke-linejoin:miter;stroke:rgb(0%,0%,0%);stroke-opacity:1;stroke-miterlimit:10;" d="M 145.289062 130.171875 L 156.859375 124.011719 "/>
<path style="fill:none;stroke-width:1.2;stroke-linecap:butt;stroke-linejoin:miter;stroke:rgb(0%,0%,100%);stroke-opacity:1;stroke-miterlimit:10;" d="M 156.859375 124.011719 L 168.429688 117.847656 "/>
<path style="fill:none;stroke-width:1.2;stroke-linecap:butt;stroke-linejoin:miter;stroke:rgb(0%,0%,0%);stroke-opacity:1;stroke-miterlimit:10;" d="M 145.289062 130.171875 L 121.714844 118.695312 "/>
<path style=" stroke:none;fill-rule:nonzero;fill:rgb(100%,100%,100%);fill-opacity:1;" d="M 164.429688 111.347656 L 172.429688 111.347656 L 172.429688 124.347656 L 164.429688 124.347656 Z M 164.429688 111.347656 "/>
<g style="fill:rgb(0%,0%,100%);fill-opacity:1;">
  <use xlink:href="#glyph0-2" x="164.429688" y="121.249023"/>
</g>
<path style="fill:none;stroke-width:1.2;stroke-linecap:butt;stroke-linejoin:miter;stroke:rgb(0%,0%,0%);stroke-opacity:1;stroke-miterlimit:10;" d="M 121.714844 118.695312 L 99.992188 133.375 "/>
<path style="fill:none;stroke-width:1.2;stroke-linecap:butt;stroke-linejoin:miter;stroke:rgb(0%,0%,0%);stroke-opacity:1;stroke-miterlimit:10;" d="M 116.089844 115.054688 L 98.710938 126.792969 "/>
<path style="fill:none;stroke-width:1.2;stroke-linecap:butt;stroke-linejoin:miter;stroke:rgb(0%,0%,0%);stroke-opacity:1;stroke-miterlimit:10;" d="M 119.867188 92.542969 L 121.714844 118.695312 "/>
<path style="fill:none;stroke-width:1.2;stroke-linecap:butt;stroke-linejoin:miter;stroke:rgb(0%,0%,0%);stroke-opacity:1;stroke-miterlimit:10;" d="M 99.992188 133.375 L 76.417969 121.898438 "/>
<path style="fill:none;stroke-width:1.2;stroke-linecap:butt;stroke-linejoin:miter;stroke:rgb(0%,0%,0%);stroke-opacity:1;stroke-miterlimit:10;" d="M 76.417969 121.898438 L 64.269531 126.816406 "/>
<path style="fill:none;stroke-width:1.2;stroke-linecap:butt;stroke-linejoin:miter;stroke:rgb(0%,0%,100%);stroke-opacity:1;stroke-miterlimit:10;" d="M 64.269531 126.816406 L 52.117188 131.738281 "/>
<path style="fill:none;stroke-width:1.2;stroke-linecap:butt;stroke-linejoin:miter;stroke:rgb(0%,0%,0%);stroke-opacity:1;stroke-miterlimit:10;" d="M 74.570312 95.746094 L 76.417969 121.898438 "/>
<path style="fill:none;stroke-width:1.2;stroke-linecap:butt;stroke-linejoin:miter;stroke:rgb(0%,0%,0%);stroke-opacity:1;stroke-miterlimit:10;" d="M 80.910156 97.925781 L 82.386719 118.847656 "/>
<path style="fill:none;stroke-width:1.2;stroke-linecap:butt;stroke-linejoin:miter;stroke:rgb(0%,0%,100%);stroke-opacity:1;stroke-miterlimit:10;" d="M 52.117188 131.738281 L 43.683594 121.699219 "/>
<path style="fill:none;stroke-width:1.2;stroke-linecap:butt;stroke-linejoin:miter;stroke:rgb(0%,0%,0%);stroke-opacity:1;stroke-miterlimit:10;" d="M 43.683594 121.699219 L 35.25 111.664062 "/>
<path style=" stroke:none;fill-rule:nonzero;fill:rgb(100%,100%,100%);fill-opacity:1;" d="M 44.117188 125.238281 L 61.117188 125.238281 L 61.117188 138.238281 L 44.117188 138.238281 Z M 44.117188 125.238281 "/>
<g style="fill:rgb(0%,0%,100%);fill-opacity:1;">
  <use xlink:href="#glyph0-2" x="44.117188" y="135.139648"/>
  <use xlink:href="#glyph0-3" x="52.100586" y="135.139648"/>
</g>
<path style="fill:none;stroke-width:1.2;stroke-linecap:butt;stroke-linejoin:miter;stroke:rgb(0%,0%,0%);stroke-opacity:1;stroke-miterlimit:10;" d="M 35.25 111.664062 L 42.1875 100.542969 "/>
<path style="fill:none;stroke-width:1.2;stroke-linecap:butt;stroke-linejoin:miter;stroke:rgb(0%,0%,100%);stroke-opacity:1;stroke-miterlimit:10;" d="M 42.1875 100.542969 L 49.128906 89.421875 "/>
<path style="fill:none;stroke-width:1.2;stroke-linecap:butt;stroke-linejoin:miter;stroke:rgb(0%,0%,0%);stroke-opacity:1;stroke-miterlimit:10;" d="M 41.871094 112.707031 L 47.421875 103.808594 "/>
<path style="fill:none;stroke-width:1.2;stroke-linecap:butt;stroke-linejoin:miter;stroke:rgb(0%,0%,100%);stroke-opacity:1;stroke-miterlimit:10;" d="M 47.421875 103.808594 L 52.972656 94.910156 "/>
<path style="fill:none;stroke-width:1.2;stroke-linecap:butt;stroke-linejoin:miter;stroke:rgb(0%,0%,100%);stroke-opacity:1;stroke-miterlimit:10;" d="M 49.128906 89.421875 L 61.847656 92.582031 "/>
<path style="fill:none;stroke-width:1.2;stroke-linecap:butt;stroke-linejoin:miter;stroke:rgb(0%,0%,0%);stroke-opacity:1;stroke-miterlimit:10;" d="M 61.847656 92.582031 L 74.570312 95.746094 "/>
<path style=" stroke:none;fill-rule:nonzero;fill:rgb(100%,100%,100%);fill-opacity:1;" d="M 45.128906 82.921875 L 53.128906 82.921875 L 53.128906 95.921875 L 45.128906 95.921875 Z M 45.128906 82.921875 "/>
<g style="fill:rgb(0%,0%,100%);fill-opacity:1;">
  <use xlink:href="#glyph0-2" x="45.128906" y="92.823242"/>
</g>
<path style="fill:none;stroke-width:1.2;stroke-linecap:butt;stroke-linejoin:miter;stroke:rgb(0%,0%,0%);stroke-opacity:1;stroke-miterlimit:10;" d="M 74.570312 95.746094 L 96.296875 81.070312 "/>
<path style="fill:none;stroke-width:1.2;stroke-linecap:butt;stroke-linejoin:miter;stroke:rgb(0%,0%,0%);stroke-opacity:1;stroke-miterlimit:10;" d="M 96.296875 81.070312 L 119.867188 92.542969 "/>
<path style="fill:none;stroke-width:1.2;stroke-linecap:butt;stroke-linejoin:miter;stroke:rgb(0%,0%,0%);stroke-opacity:1;stroke-miterlimit:10;" d="M 95.953125 87.761719 L 114.8125 96.945312 "/>
<path style="fill:none;stroke-width:1.2;stroke-linecap:butt;stroke-linejoin:miter;stroke:rgb(0%,0%,0%);stroke-opacity:1;stroke-miterlimit:10;" d="M 131.660156 174.863281 L 106.21875 168.539062 "/>
<path style="fill:none;stroke-width:1.2;stroke-linecap:butt;stroke-linejoin:miter;stroke:rgb(0%,0%,0%);stroke-opacity:1;stroke-miterlimit:10;" d="M 127.628906 180.214844 L 107.273438 175.15625 "/>
<path style="fill:none;stroke-width:1.2;stroke-linecap:butt;stroke-linejoin:miter;stroke:rgb(0%,0%,0%);stroke-opacity:1;stroke-miterlimit:10;" d="M 138.90625 200.058594 L 131.660156 174.863281 "/>
<path style="fill:none;stroke-width:1.2;stroke-linecap:butt;stroke-linejoin:miter;stroke:rgb(0%,0%,0%);stroke-opacity:1;stroke-miterlimit:10;" d="M 106.21875 168.539062 L 88.019531 187.410156 "/>
<path style="fill:none;stroke-width:1.2;stroke-linecap:butt;stroke-linejoin:miter;stroke:rgb(0%,0%,0%);stroke-opacity:1;stroke-miterlimit:10;" d="M 88.019531 187.410156 L 95.265625 212.605469 "/>
<path style="fill:none;stroke-width:1.2;stroke-linecap:butt;stroke-linejoin:miter;stroke:rgb(0%,0%,0%);stroke-opacity:1;stroke-miterlimit:10;" d="M 94.671875 188.226562 L 100.46875 208.382812 "/>
<path style="fill:none;stroke-width:1.2;stroke-linecap:butt;stroke-linejoin:miter;stroke:rgb(0%,0%,0%);stroke-opacity:1;stroke-miterlimit:10;" d="M 95.265625 212.605469 L 120.707031 218.929688 "/>
<path style="fill:none;stroke-width:1.2;stroke-linecap:butt;stroke-linejoin:miter;stroke:rgb(0%,0%,0%);stroke-opacity:1;stroke-miterlimit:10;" d="M 120.707031 218.929688 L 138.90625 200.058594 "/>
<path style="fill:none;stroke-width:1.2;stroke-linecap:butt;stroke-linejoin:miter;stroke:rgb(0%,0%,0%);stroke-opacity:1;stroke-miterlimit:10;" d="M 118.085938 212.761719 L 132.644531 197.664062 "/>
</g>
</svg>

<svg xmlns="http://www.w3.org/2000/svg" xmlns:xlink="http://www.w3.org/1999/xlink" width="300pt" height="300pt" viewBox="0 0 300 300"><defs><symbol overflow="visible"><path d="M.547 1.938V-7.75h5.5v9.688zm.625-.61h4.266v-8.47H1.171zm0 0"/></symbol><symbol overflow="visible" id="a"><path d="M1.078-8.016h4.61v.907H2.171v2.36h3.172v.922H2.172V0H1.078zm0 0"/></symbol><symbol overflow="visible" id="b"><path d="M1.078-8.016h1.47l3.546 6.704v-6.704h1.062V0H5.688L2.124-6.703V0H1.078zm0 0"/></symbol><symbol overflow="visible" id="c"><path d="M1.078-8.016h1.094v3.282H6.11v-3.282h1.077V0H6.11v-3.813H2.17V0H1.078zm0 0"/></symbol></defs><g><path fill="#fff" d="M0 0h300v300H0z"/><path d="M205.2 86.762l8.433 10.035" stroke-width="1.2" stroke="#3cc" stroke-miterlimit="10" fill="none"/><path d="M213.633 96.797l8.433 10.035" stroke-width="1.2" stroke="#000" stroke-miterlimit="10" fill="none"/><path d="M198.2 80.262h7v13h-7zm0 0" fill="#fff"/><use xlink:href="#a" x="198.199" y="90.163" fill="#3cc"/><path d="M222.066 106.832l25.817-4.57M225.723 112.45l20.656-3.657M213.117 131.477l8.95-24.645M247.883 102.262l16.867 20.07M264.75 122.332l-8.95 24.645M258.06 122.69l-7.162 19.716M255.8 146.977l-25.816 4.57M229.984 151.547l-4.472 12.32" stroke-width="1.2" stroke="#000" stroke-miterlimit="10" fill="none"/><path d="M225.512 163.867l-4.477 12.324" stroke-width="1.2" stroke="#3cc" stroke-miterlimit="10" fill="none"/><path d="M229.984 151.547l-16.867-20.07M233.02 145.57l-13.493-16.058" stroke-width="1.2" stroke="#000" stroke-miterlimit="10" fill="none"/><path d="M214.035 169.69h7v13h-7zm0 0" fill="#fff"/><use xlink:href="#a" x="214.035" y="179.593" fill="#3cc"/><path d="M213.117 131.477l-25.816 4.57M187.3 136.047l-5.738 11.785" stroke-width="1.2" stroke="#000" stroke-miterlimit="10" fill="none"/><path d="M181.563 147.832l-5.74 11.785M168.43 117.848l9.433 9.097" stroke-width="1.2" stroke="#00f" stroke-miterlimit="10" fill="none"/><path d="M177.863 126.945l9.438 9.102" stroke-width="1.2" stroke="#000" stroke-miterlimit="10" fill="none"/><path d="M166.035 124.11l7.547 7.277" stroke-width="1.2" stroke="#00f" stroke-miterlimit="10" fill="none"/><path d="M173.582 131.387l7.55 7.28" stroke-width="1.2" stroke="#000" stroke-miterlimit="10" fill="none"/><path d="M175.824 159.617l-12.98-1.812" stroke-width="1.2" stroke="#00f" stroke-miterlimit="10" fill="none"/><path d="M162.844 157.805l-12.985-1.817" stroke-width="1.2" stroke="#000" stroke-miterlimit="10" fill="none"/><path d="M167.824 153.117h17v13h-17zm0 0" fill="#fff"/><g fill="#00f"><use xlink:href="#b" x="167.824" y="163.019"/><use xlink:href="#c" x="175.808" y="163.019"/></g><path d="M149.86 155.988l-4.57-25.816M155.477 152.332l-3.657-20.652M149.86 155.988l-18.2 18.875M145.29 130.172l11.57-6.16" stroke-width="1.2" stroke="#000" stroke-miterlimit="10" fill="none"/><path d="M156.86 124.012l11.57-6.164" stroke-width="1.2" stroke="#00f" stroke-miterlimit="10" fill="none"/><path d="M145.29 130.172l-23.575-11.477" stroke-width="1.2" stroke="#000" stroke-miterlimit="10" fill="none"/><path d="M164.43 111.348h8v13h-8zm0 0" fill="#fff"/><use xlink:href="#b" x="164.43" y="121.249" fill="#00f"/><path d="M121.715 118.695l-21.723 14.68M116.09 115.055l-17.38 11.738M119.867 92.543l1.848 26.152M99.992 133.375l-23.574-11.477M76.418 121.898l-12.148 4.918" stroke-width="1.2" stroke="#000" stroke-miterlimit="10" fill="none"/><path d="M64.27 126.816l-12.153 4.922" stroke-width="1.2" stroke="#00f" stroke-miterlimit="10" fill="none"/><path d="M74.57 95.746l1.848 26.152M80.91 97.926l1.477 20.922" stroke-width="1.2" stroke="#000" stroke-miterlimit="10" fill="none"/><path d="M52.117 131.738l-8.433-10.04" stroke-width="1.2" stroke="#00f" stroke-miterlimit="10" fill="none"/><path d="M43.684 121.7l-8.434-10.036" stroke-width="1.2" stroke="#000" stroke-miterlimit="10" fill="none"/><path d="M44.117 125.238h17v13h-17zm0 0" fill="#fff"/><g fill="#00f"><use xlink:href="#b" x="44.117" y="135.14"/><use xlink:href="#c" x="52.101" y="135.14"/></g><path d="M35.25 111.664l6.938-11.12" stroke-width="1.2" stroke="#000" stroke-miterlimit="10" fill="none"/><path d="M42.188 100.543l6.94-11.12" stroke-width="1.2" stroke="#00f" stroke-miterlimit="10" fill="none"/><path d="M41.87 112.707l5.552-8.898" stroke-width="1.2" stroke="#000" stroke-miterlimit="10" fill="none"/><path d="M47.422 103.81l5.55-8.9M49.13 89.422l12.718 3.16" stroke-width="1.2" stroke="#00f" stroke-miterlimit="10" fill="none"/><path d="M61.848 92.582l12.722 3.164" stroke-width="1.2" stroke="#000" stroke-miterlimit="10" fill="none"/><path d="M45.13 82.922h8v13h-8zm0 0" fill="#fff"/><use xlink:href="#b" x="45.129" y="92.823" fill="#00f"/><path d="M74.57 95.746L96.297 81.07M96.297 81.07l23.57 11.473M95.953 87.762l18.86 9.183M131.66 174.863l-25.44-6.324M127.63 180.215l-20.357-5.06M138.906 200.06l-7.246-25.197M106.22 168.54l-18.2 18.87M88.02 187.41l7.246 25.195M94.672 188.227l5.797 20.156M95.266 212.605l25.44 6.325M120.707 218.93l18.2-18.87M118.086 212.762l14.56-15.098" stroke-width="1.2" stroke="#000" stroke-miterlimit="10" fill="none"/></g></svg>
